icons/1_Primary/Pluralsight.svg

<svg xmlns="http://www.w3.org/2000/svg" width="1024" height="1024" fill="none">
   <g clip-path="url(#a)">
      <path fill="#FF837D" d="M512 1024c282.77 0 512-229.23 512-512S794.77 0 512 0 0 229.23 0 512s229.23 512 512 512Z"/>
      <path fill="#fff" d="M598.2 275.16c-130.59-47.53-275.51 20-323 150.64-47.49 130.64 20 275.51 150.63 323 130.63 47.49 275.52-20 323.05-150.64 47.53-130.64-20.05-275.51-150.64-323h-.04ZM512 789.5C359 789.5 234.5 665 234.5 512S359 234.5 512 234.5 789.5 359 789.5 512 665 789.5 512 789.5ZM689.41 512 441.06 368.61v64.27l-57.09-33v224.2l57.09-33v64.27L689.41 512ZM464.83 409.78 641.87 512l-177 102.22v-36.83L578.09 512l-113.26-65.4v-36.82Zm0 140.16v-75.89L530.54 512l-65.71 37.94Zm-57.09 33V441.09l33.32 19.24v103.34l-33.32 19.27Z"/>
   </g>
   <defs>
      <clipPath id="a">
         <path fill="#fff" d="M0 0h1024v1024H0z"/>
      </clipPath>
   </defs>
</svg>

<svg width="1024" height="1024" viewBox="0 0 1024 1024" fill="none" xmlns="http://www.w3.org/2000/svg">
<g clip-path="url(#clip0_2_3168)">
<path d="M512 1024C794.77 1024 1024 794.77 1024 512C1024 229.23 794.77 0 512 0C229.23 0 0 229.23 0 512C0 794.77 229.23 1024 512 1024Z" fill="#FF837D"/>
<path d="M598.2 275.16C467.61 227.63 322.69 295.16 275.2 425.8C227.71 556.44 295.2 701.31 425.83 748.8C556.46 796.29 701.35 728.8 748.88 598.16C796.41 467.52 728.83 322.65 598.24 275.16H598.2ZM512 789.5C359 789.5 234.5 665 234.5 512C234.5 359 359 234.5 512 234.5C665 234.5 789.5 359 789.5 512C789.5 665 665 789.5 512 789.5ZM689.41 512L441.06 368.61V432.88L383.97 399.88V624.08L441.06 591.08V655.35L689.41 512ZM464.83 409.78L641.87 512L464.87 614.22V577.39L578.09 512L464.83 446.6V409.78ZM464.83 549.94V474.05L530.54 512L464.83 549.94ZM407.74 582.94V441.09L441.06 460.33V563.67L407.74 582.94Z" fill="white"/>
</g>
<defs>
<clipPath id="clip0_2_3168">
<rect width="1024" height="1024" fill="white"/>
</clipPath>
</defs>
</svg>
